Sources/FrostedUI/Resources/Icons.xcassets/apps24.imageset/apps-24.svg

<svg width="24" height="24" viewBox="0 0 24 24" fill="none" xmlns="http://www.w3.org/2000/svg" data-fui-icon="true">
  <path
    d="M12.0005 1C12.4145 1.00025 12.7505 1.33594 12.7505 1.75V4.05566C15.1559 4.4177 17.0005 6.49363 17.0005 9C17.0005 10.4057 16.4187 11.6746 15.4849 12.583L17.4312 16.6768C17.5815 16.5579 17.7245 16.4386 17.8579 16.3184C18.4651 15.7711 18.9004 15.2229 19.1821 14.8154C19.3226 14.6122 19.425 14.4452 19.4897 14.332C19.522 14.2755 19.5449 14.2321 19.5591 14.2051C19.5661 14.1917 19.5711 14.182 19.5737 14.1768C19.5749 14.1743 19.5755 14.1723 19.5757 14.1719C19.7564 13.8005 20.2044 13.6447 20.5767 13.8242C20.9493 14.0043 21.106 14.4533 20.9263 14.8262L20.2505 14.5C20.8665 14.7971 20.9207 14.8236 20.9253 14.8262V14.8271L20.9136 14.8506C20.9072 14.8632 20.8982 14.8803 20.8872 14.9014C20.865 14.9438 20.8333 15.0031 20.7915 15.0762C20.7077 15.2226 20.5837 15.4271 20.4165 15.6689C20.0826 16.1519 19.5719 16.7916 18.8618 17.4316C18.6268 17.6434 18.3678 17.8528 18.0884 18.0586L19.9282 21.9277C20.1059 22.3017 19.9465 22.7498 19.5728 22.9277C19.1988 23.1055 18.7507 22.9462 18.5728 22.5723L16.8071 18.8594C15.5387 19.522 13.9492 19.9999 12.0005 20C10.0512 20 8.46058 19.5222 7.19189 18.8594L5.42822 22.5723C5.25041 22.9462 4.80221 23.1053 4.42822 22.9277C4.05416 22.7499 3.89491 22.3018 4.07275 21.9277L5.91064 18.0596C5.6314 17.8539 5.37403 17.6433 5.13916 17.4316C4.42905 16.7917 3.91846 16.152 3.58447 15.6689C3.41727 15.4271 3.29326 15.2227 3.20947 15.0762C3.16769 15.0031 3.13603 14.9438 3.11377 14.9014C3.10276 14.8804 3.09377 14.8632 3.0874 14.8506L3.07568 14.8271V14.8262C3.08237 14.8225 3.14688 14.7911 3.75049 14.5L3.07471 14.8262C2.8948 14.4531 3.05137 14.0042 3.42432 13.8242C3.79661 13.6449 4.24473 13.8005 4.42529 14.1719L4.42725 14.1768C4.42991 14.182 4.43492 14.1918 4.44189 14.2051C4.45608 14.2321 4.47895 14.2756 4.51123 14.332C4.576 14.4453 4.67834 14.6122 4.81885 14.8154C5.10063 15.223 5.53583 15.7711 6.14307 16.3184C6.27622 16.4383 6.41787 16.5581 6.56787 16.6768L8.51514 12.583C7.58132 11.6746 7.00049 10.4057 7.00049 9C7.00049 6.49332 8.84462 4.41732 11.2505 4.05566V1.75C11.2505 1.33579 11.5863 1 12.0005 1ZM14.2446 13.4668C13.5696 13.8067 12.8078 13.9999 12.0005 14C11.193 14 10.4306 13.8068 9.75537 13.4668L7.83545 17.5049C8.92102 18.081 10.2946 18.5 12.0005 18.5C13.7058 18.4999 15.0782 18.0808 16.1636 17.5049L14.2446 13.4668ZM12.0005 5.5C10.0675 5.5 8.50049 7.067 8.50049 9C8.50049 10.933 10.0675 12.5 12.0005 12.5C13.9333 12.4998 15.5005 10.9328 15.5005 9C15.5005 7.06716 13.9333 5.50025 12.0005 5.5Z"
    fill="currentColor"
  />
</svg>

<svg xmlns="http://www.w3.org/2000/svg" width="24" height="24" fill="none" data-fui-icon="true" viewBox="0 0 24 24"><path fill="currentColor" d="M12 1a.75.75 0 0 1 .75.75v2.306A5 5 0 0 1 17 9a4.98 4.98 0 0 1-1.515 3.583l1.946 4.094q.226-.179.427-.359a8.7 8.7 0 0 0 1.324-1.503 7 7 0 0 0 .377-.61l.015-.028q.001-.005.002-.005a.751.751 0 0 1 1.35.654l-.675-.326.674.326v.001l-.011.024-.027.05-.096.175c-.083.147-.207.351-.375.593a10.2 10.2 0 0 1-1.554 1.763 10 10 0 0 1-.774.627l1.84 3.869a.751.751 0 0 1-1.355.644l-1.766-3.713C15.54 19.522 13.95 20 12.001 20c-1.95 0-3.54-.478-4.81-1.14l-1.763 3.712a.751.751 0 0 1-1.355-.644L5.91 18.06a10.217 10.217 0 0 1-2.326-2.39 8 8 0 0 1-.471-.769l-.027-.05-.011-.024c.006-.005.07-.036.674-.327l-.675.326a.75.75 0 0 1 1.35-.654l.002.005.015.028q.02.041.07.127c.064.113.166.28.307.483a8.7 8.7 0 0 0 1.749 1.862l1.947-4.094a5 5 0 0 1 2.735-8.527V1.75A.75.75 0 0 1 12 1m2.245 12.467A5 5 0 0 1 12 14c-.808 0-1.57-.193-2.246-.533l-1.92 4.038c1.086.576 2.46.995 4.166.995 1.705 0 3.077-.42 4.163-.995zM12 5.5a3.5 3.5 0 1 0 0 7 3.5 3.5 0 0 0 0-7"/></svg>
